packages/core/src/svgs/bao.svg

<svg width="24" height="24" viewBox="0 0 24 24" fill="none" xmlns="http://www.w3.org/2000/svg">
<g clip-path="url(#clip0_31_6746)">
<path d="M0 0H24V24H0V0Z" fill="#FFF8EE"/>
<path d="M11.9572 18.4199C5.87148 18.6342 4.20434 14.3999 4.28577 12.3685C4.39456 11.0905 4.84993 9.86637 5.60286 8.82798C6.35579 7.78959 7.37773 6.97628 8.55863 6.47564C8.62291 5.8285 9.13291 4.60707 10.6758 4.9285C11.0958 4.44421 12.2186 3.76707 13.3072 4.9285C14.0058 4.81707 15.4072 4.97136 15.4072 6.47564C17.8201 7.28993 19.7101 10.4271 19.7101 12.5014C19.7101 13.9414 19.5729 18.1585 11.9572 18.4199Z" fill="#5A261C"/>
<path fill-rule="evenodd" clip-rule="evenodd" d="M4.71435 12.3087C4.63721 14.2159 6.20578 18.193 11.9572 17.9916C18.9172 17.7516 19.1786 13.9502 19.2729 12.5659L19.2815 12.433C19.3886 11.0187 17.6786 7.59445 15.2144 6.77587V6.75873C14.8681 6.6408 14.5043 6.58283 14.1386 6.5873C14.4845 6.488 14.8494 6.47476 15.2015 6.54873C15.0944 5.55016 14.2415 5.29302 13.5944 5.29302H13.5986C13.0715 5.2973 12.6729 5.79445 12.5401 6.04302C12.6386 5.55445 12.8829 5.28016 13.0672 5.15587C12.2701 4.45302 11.4815 4.71873 11.0101 5.07016C10.7058 5.43445 10.7186 6.01302 10.7829 6.33016C10.6462 6.00064 10.5833 5.64517 10.5986 5.28873C10.3798 5.24449 10.1539 5.24881 9.93698 5.30139C9.72001 5.35396 9.51722 5.45352 9.34292 5.59302C8.99578 5.95302 8.64864 6.72016 9.52721 7.42302C9.27435 7.28587 8.80721 7.0073 8.63578 6.82302C7.55069 7.3023 6.61428 8.06428 5.92444 9.0293C5.2346 9.99431 4.81668 11.1269 4.71435 12.3087ZM12.2529 7.50873C12.4662 7.90848 12.8183 8.21641 13.2429 8.37445C12.3772 8.51159 12.2229 7.85159 12.2529 7.50873ZM11.8158 7.20873C11.9144 7.5773 11.9615 8.45159 11.3444 8.9873C11.7901 8.81587 12.5058 8.21587 11.8158 7.20873ZM10.5429 8.39587C10.8215 8.27587 11.3658 7.9073 11.3229 7.38445C11.7001 8.21587 10.9629 8.40445 10.5429 8.39587ZM8.78578 13.7144C9.06994 13.7144 9.34246 13.6016 9.54339 13.4006C9.74433 13.1997 9.85721 12.9272 9.85721 12.643C9.85721 12.3589 9.74433 12.0863 9.54339 11.8854C9.34246 11.6845 9.06994 11.5716 8.78578 11.5716C8.50162 11.5716 8.2291 11.6845 8.02816 11.8854C7.82723 12.0863 7.71435 12.3589 7.71435 12.643C7.71435 12.9272 7.82723 13.1997 8.02816 13.4006C8.2291 13.6016 8.50162 13.7144 8.78578 13.7144ZM9.00435 12.8573C9.06135 12.8584 9.118 12.8482 9.17099 12.8272C9.22398 12.8061 9.27224 12.7748 9.31295 12.7348C9.35366 12.6949 9.386 12.6473 9.40807 12.5947C9.43014 12.5422 9.4415 12.4857 9.44149 12.4287C9.44152 12.3714 9.43002 12.3146 9.40769 12.2617C9.38535 12.2088 9.35263 12.161 9.31146 12.121C9.27029 12.0811 9.22151 12.0498 9.16802 12.029C9.11453 12.0083 9.05742 11.9984 9.00006 12.0002C8.8864 12.0002 8.77739 12.0453 8.69702 12.1257C8.61665 12.2061 8.57149 12.3151 8.57149 12.4287C8.57149 12.4854 8.58272 12.5415 8.60452 12.5937C8.62633 12.646 8.65828 12.6934 8.69853 12.7333C8.73878 12.7732 8.78653 12.8046 8.83903 12.8259C8.89152 12.8472 8.94771 12.8579 9.00435 12.8573ZM14.1429 12.643C14.1429 12.9272 14.2558 13.1997 14.4567 13.4006C14.6577 13.6016 14.9302 13.7144 15.2144 13.7144C15.4985 13.7144 15.771 13.6016 15.972 13.4006C16.1729 13.1997 16.2858 12.9272 16.2858 12.643C16.2858 12.3589 16.1729 12.0863 15.972 11.8854C15.771 11.6845 15.4985 11.5716 15.2144 11.5716C14.9302 11.5716 14.6577 11.6845 14.4567 11.8854C14.2558 12.0863 14.1429 12.3589 14.1429 12.643ZM14.5715 12.4287C14.5715 12.5424 14.6166 12.6514 14.697 12.7318C14.7774 12.8122 14.8864 12.8573 15.0001 12.8573C15.1137 12.8573 15.2227 12.8122 15.3031 12.7318C15.3835 12.6514 15.4286 12.5424 15.4286 12.4287C15.4286 12.3151 15.3835 12.2061 15.3031 12.1257C15.2227 12.0453 15.1137 12.0002 15.0001 12.0002C14.8864 12.0002 14.7774 12.0453 14.697 12.1257C14.6166 12.2061 14.5715 12.3151 14.5715 12.4287Z" fill="#FFFCF5"/>
<path d="M5.7644 15.4671C6.80155 16.8899 8.71726 18.1071 11.9615 17.9956C18.9173 17.7514 19.1787 13.9499 19.273 12.5656L19.2815 12.4328C19.333 11.7471 18.9601 10.5985 18.2873 9.49707C18.5401 10.7142 18.6773 12.2528 18.2615 13.3799C17.4815 15.4671 16.333 16.9328 12.1501 17.3142C9.86623 17.5108 7.59068 16.8525 5.7644 15.4671Z" fill="#F2E6DA"/>
<path d="M11.9829 13.6283C12.1415 13.6283 12.2701 13.5631 12.2701 13.4826C12.2701 13.4022 12.1415 13.3369 11.9829 13.3369C11.8244 13.3369 11.6958 13.4022 11.6958 13.4826C11.6958 13.5631 11.8244 13.6283 11.9829 13.6283Z" fill="#5A261C"/>
<path d="M11.9571 14.7598C11.16 15.4412 10.4743 15.1455 10.23 14.9183C10.29 15.2698 10.7186 15.8226 11.9528 15.2141C12.3814 15.4498 13.3414 15.7198 13.7357 14.9141C13.4614 15.0833 13.1399 15.1597 12.8187 15.1319C12.4976 15.1041 12.194 14.9736 11.9528 14.7598H11.9571Z" fill="#5A261C"/>
</g>
<defs>
<clipPath id="clip0_31_6746">
<rect width="24" height="24" fill="white"/>
</clipPath>
</defs>
</svg>

<svg xmlns="http://www.w3.org/2000/svg" width="24" height="24" fill="none" viewBox="0 0 24 24"><g clip-path="url(#a)"><path fill="#FFF8EE" d="M0 0h24v24H0z"/><path fill="#5A261C" d="M11.957 18.42c-6.086.214-7.753-4.02-7.671-6.052a7.05 7.05 0 0 1 4.273-5.892c.064-.647.574-1.869 2.117-1.548.42-.484 1.543-1.16 2.631 0 .699-.11 2.1.043 2.1 1.548 2.413.814 4.303 3.951 4.303 6.025 0 1.44-.137 5.658-7.753 5.919"/><path fill="#FFFCF5" fill-rule="evenodd" d="M4.714 12.309c-.077 1.907 1.492 5.884 7.243 5.683 6.96-.24 7.222-4.042 7.316-5.426l.009-.133c.107-1.414-1.603-4.839-4.068-5.657v-.017a3.2 3.2 0 0 0-1.075-.172c.346-.099.71-.112 1.063-.038-.108-.999-.96-1.256-1.608-1.256h.005c-.527.004-.926.501-1.059.75.099-.489.343-.763.527-.887-.797-.703-1.585-.437-2.057-.086-.304.364-.291.943-.227 1.26-.137-.33-.2-.685-.184-1.041a1.53 1.53 0 0 0-1.256.304c-.347.36-.694 1.127.184 1.83-.253-.137-.72-.416-.891-.6a6.62 6.62 0 0 0-3.922 5.486m7.539-4.8c.213.4.565.707.99.865-.866.138-1.02-.522-.99-.865m-.437-.3c.098.368.145 1.243-.472 1.778.446-.171 1.162-.771.472-1.778m-1.273 1.187c.279-.12.823-.489.78-1.012.377.832-.36 1.02-.78 1.012m-1.757 5.318a1.071 1.071 0 1 0 0-2.142 1.071 1.071 0 0 0 0 2.142m.218-.857a.43.43 0 0 0 .164-.828A.4.4 0 0 0 9 12a.428.428 0 1 0 .004.857m5.139-.214a1.071 1.071 0 1 0 2.143 0 1.071 1.071 0 0 0-2.143 0m.428-.214a.429.429 0 1 0 .858 0 .429.429 0 0 0-.857 0" clip-rule="evenodd"/><path fill="#F2E6DA" d="M5.764 15.467c1.038 1.423 2.953 2.64 6.197 2.529 6.956-.245 7.218-4.046 7.312-5.43l.009-.133c.051-.686-.322-1.835-.995-2.936.253 1.217.39 2.756-.025 3.883-.78 2.087-1.929 3.553-6.112 3.934a9.25 9.25 0 0 1-6.386-1.847"/><path fill="#5A261C" d="M11.983 13.628c.159 0 .287-.065.287-.145s-.128-.146-.287-.146-.287.065-.287.146.128.145.287.145M11.957 14.76c-.797.681-1.483.386-1.727.158.06.352.489.905 1.723.296.428.236 1.388.506 1.783-.3a1.5 1.5 0 0 1-1.783-.154z"/></g><defs><clipPath id="a"><path fill="#fff" d="M0 0h24v24H0z"/></clipPath></defs></svg>
